build/img/main_screen/vectors/speech_bubble.svg

<svg width="112" height="78" viewBox="0 0 112 78" fill="none" xmlns="http://www.w3.org/2000/svg">
<g clip-path="url(#clip0_2_215)">
<path d="M4.4108 19.5461C11.7235 8.97877 31.282 0.23025 55.4834 -0.0229972C77.4679 -0.230199 104.235 6.18154 110.932 27.132C116.643 45.0089 99.0693 61.6656 80.8341 65.119C73.5652 66.5278 66.1853 67.2982 58.7799 67.4212C55.4022 73.6833 47.4743 77.5281 41.4965 77.931C44.0417 74.8558 45.4469 71.0082 45.4779 67.0298C39.781 66.5057 34.1317 65.5592 28.5775 64.1981C-3.07598 56.3014 -3.77244 31.3451 4.4108 19.5461Z" fill="#B0CB1F"/>
<path opacity="0.4" d="M4.4108 19.5461C11.7235 8.97877 31.282 0.23025 55.4834 -0.0229972C77.4679 -0.230199 104.235 6.18154 110.932 27.132C116.643 45.0089 99.0693 61.6656 80.8341 65.119C73.5652 66.5278 66.1853 67.2982 58.7799 67.4212C55.4022 73.6833 47.4743 77.5281 41.4965 77.931C44.0417 74.8558 45.4469 71.0082 45.4779 67.0298C39.781 66.5057 34.1317 65.5592 28.5775 64.1981C-3.07598 56.3014 -3.77244 31.3451 4.4108 19.5461Z" fill="white"/>
<path d="M86.7539 27.0398C88.0532 27.0398 89.3235 27.4219 90.4038 28.1378C91.4842 28.8538 92.3263 29.8713 92.8236 31.0618C93.3208 32.2524 93.4509 33.5624 93.1974 34.8262C92.9439 36.0901 92.3182 37.251 91.3994 38.1622C90.4806 39.0734 89.31 39.6939 88.0356 39.9453C86.7612 40.1967 85.4402 40.0677 84.2397 39.5745C83.0392 39.0814 82.0132 38.2463 81.2913 37.1749C80.5694 36.1034 80.1841 34.8438 80.1841 33.5551C80.1841 31.8272 80.8762 30.17 82.1083 28.9481C83.3404 27.7262 85.0114 27.0398 86.7539 27.0398ZM56.0058 27.0398C57.3052 27.0398 58.5754 27.4219 59.6558 28.1378C60.7362 28.8538 61.5783 29.8713 62.0755 31.0618C62.5728 32.2524 62.7029 33.5624 62.4494 34.8262C62.1959 36.0901 61.5702 37.251 60.6513 38.1622C59.7325 39.0734 58.5619 39.6939 57.2875 39.9453C56.0131 40.1967 54.6921 40.0677 53.4917 39.5745C52.2912 39.0814 51.2651 38.2463 50.5432 37.1749C49.8213 36.1034 49.436 34.8438 49.436 33.5551C49.436 31.8272 50.1282 30.17 51.3603 28.9481C52.5923 27.7262 54.2634 27.0398 56.0058 27.0398ZM25.2577 27.0398C26.5571 27.0398 27.8273 27.4219 28.9077 28.1378C29.9881 28.8538 30.8302 29.8713 31.3274 31.0618C31.8247 32.2524 31.9548 33.5624 31.7013 34.8262C31.4478 36.0901 30.8221 37.251 29.9033 38.1622C28.9845 39.0734 27.8139 39.6939 26.5394 39.9453C25.265 40.1967 23.9441 40.0677 22.7436 39.5745C21.5431 39.0814 20.517 38.2463 19.7952 37.1749C19.0732 36.1034 18.688 34.8438 18.688 33.5551C18.6864 32.6991 18.8553 31.8512 19.1849 31.06C19.5145 30.2689 19.9984 29.55 20.6088 28.9447C21.2191 28.3394 21.944 27.8596 22.7418 27.5327C23.5396 27.2058 24.3945 27.0383 25.2577 27.0398Z" fill="white"/>
</g>
<defs>
<clipPath id="clip0_2_215">
<rect width="112" height="78" fill="white" transform="matrix(-1 0 0 1 112 0)"/>
</clipPath>
</defs>
</svg>

<svg width="112" height="78" fill="none" xmlns="http://www.w3.org/2000/svg"><g clip-path="url(#a)"><path d="M4.41 19.546C11.724 8.98 31.283.23 55.484-.023c21.985-.207 48.752 6.205 55.449 27.155 5.711 17.877-11.863 34.534-30.098 37.987a126.997 126.997 0 0 1-22.054 2.302c-3.378 6.262-11.306 10.107-17.284 10.51a17.307 17.307 0 0 0 3.982-10.901 115.439 115.439 0 0 1-16.9-2.832C-3.076 56.301-3.773 31.345 4.41 19.546Z" fill="#B0CB1F"/><path opacity=".4" d="M4.41 19.546C11.724 8.98 31.283.23 55.484-.023c21.985-.207 48.752 6.205 55.449 27.155 5.711 17.877-11.863 34.534-30.098 37.987a126.997 126.997 0 0 1-22.054 2.302c-3.378 6.262-11.306 10.107-17.284 10.51a17.307 17.307 0 0 0 3.982-10.901 115.439 115.439 0 0 1-16.9-2.832C-3.076 56.301-3.773 31.345 4.41 19.546Z" fill="#fff"/><path d="M86.754 27.04c1.3 0 2.57.382 3.65 1.098a6.528 6.528 0 0 1 2.42 2.924c.497 1.19.627 2.5.373 3.764a6.499 6.499 0 0 1-1.798 3.336 6.587 6.587 0 0 1-3.363 1.783 6.62 6.62 0 0 1-3.796-.37 6.558 6.558 0 0 1-2.949-2.4 6.477 6.477 0 0 1 .817-8.227 6.598 6.598 0 0 1 4.646-1.908Zm-30.748 0c1.3 0 2.57.382 3.65 1.098a6.528 6.528 0 0 1 2.42 2.924c.497 1.19.627 2.5.373 3.764a6.498 6.498 0 0 1-1.798 3.336 6.587 6.587 0 0 1-3.364 1.783 6.62 6.62 0 0 1-3.795-.37 6.558 6.558 0 0 1-2.949-2.4 6.477 6.477 0 0 1 .817-8.227 6.597 6.597 0 0 1 4.646-1.908Zm-30.748 0c1.3 0 2.57.382 3.65 1.098a6.528 6.528 0 0 1 2.42 2.924c.497 1.19.627 2.5.373 3.764a6.499 6.499 0 0 1-1.798 3.336 6.587 6.587 0 0 1-3.364 1.783 6.62 6.62 0 0 1-3.795-.37 6.558 6.558 0 0 1-2.949-2.4 6.476 6.476 0 0 1-.61-6.115 6.5 6.5 0 0 1 1.424-2.115 6.561 6.561 0 0 1 2.133-1.412 6.606 6.606 0 0 1 2.516-.493Z" fill="#fff"/></g><defs><clipPath id="a"><path fill="#fff" transform="matrix(-1 0 0 1 112 0)" d="M0 0h112v78H0z"/></clipPath></defs></svg>
